packages/ui-icons/src/Basic/24/Alcohol-counting_24.svg

<svg xmlns="http://www.w3.org/2000/svg" viewBox="0 0 32 32"><path d="M8 28h16v-2h-3v-4.1a5 5 0 0 0 4-4.9v-2.33h-4v-1a6 6 0 0 0-3-5.08V4h-7v4.61A6.39 6.39 0 0 0 8 14Zm15-11.33V17a3 3 0 0 1-6 0v-.33ZM10 14a4.4 4.4 0 0 1 2.45-4l.55-.19V6h3v3.81l.55.28A4.13 4.13 0 0 1 19 13.68v1h-4V17a5 5 0 0 0 4 4.9V26h-9Z"/></svg>

<svg id="Ready" xmlns="http://www.w3.org/2000/svg" viewBox="0 0 32 32"><title>Megaicons_work_24_1.8_cp</title><path d="M8,28H24V26H21V21.9A5,5,0,0,0,25,17V14.67H21v-1a6,6,0,0,0-3-5.08V4H11V8.61A6.39,6.39,0,0,0,8,14ZM23,16.67V17a3,3,0,0,1-6,0v-.33ZM10,14a4.4,4.4,0,0,1,2.45-4L13,9.81V6h3V9.81l.55.28A4.13,4.13,0,0,1,19,13.68v1H15V17a5,5,0,0,0,4,4.9V26H10Z"/></svg>
